lib/brands/icons/material-ui.svg

<svg xmlns="http://www.w3.org/2000/svg" fill="none" aria-hidden="true" viewBox="0 0 48 48"><g id="material-ui-Icon"><g id="Group"><path id="Vector" fill="#00B0FF" d="M4 25.4433V8.12332L19 16.7833V22.5567L9 16.7833V28.33L4 25.4433Z"/><path id="Vector_2" fill="#0081CB" d="M19 16.7833L34 8.12332V25.4433L24 31.2167L19 28.33L29 22.5567V16.7833L19 22.5567V16.7833Z"/><path id="Vector_3" fill="#00B0FF" d="M19 28.33V34.1034L29 39.8767V34.1034L19 28.33Z"/><path id="Vector_4" fill="#0081CB" d="M29 39.8767L44 31.2167V19.67L39 22.5567V28.33L29 34.1033V39.8767ZM39 16.7833V11.01L44 8.12332V13.8967L39 16.7833Z"/></g></g></svg>

<svg xmlns="http://www.w3.org/2000/svg" fill="none" aria-hidden="true" viewBox="0 0 48 48"><path fill="#00B0FF" d="M4 25.443V8.123l15 8.66v5.774L9 16.783V28.33l-5-2.887Z"/><path fill="#0081CB" d="m19 16.783 15-8.66v17.32l-10 5.774-5-2.887 10-5.773v-5.774l-10 5.774v-5.774Z"/><path fill="#00B0FF" d="M19 28.33v5.773l10 5.774v-5.774L19 28.33Z"/><path fill="#0081CB" d="m29 39.877 15-8.66V19.67l-5 2.887v5.773l-10 5.773v5.774Zm10-23.094V11.01l5-2.887v5.774l-5 2.886Z"/></svg>
